svg/Meteorology/drawings/hail.svg

<?xml version="1.0" encoding="UTF-8" standalone="no"?>
<!-- Created with Inkscape (http://www.inkscape.org/) -->
<svg
   xmlns:dc="http://purl.org/dc/elements/1.1/"
   xmlns:cc="http://web.resource.org/cc/"
   xmlns:rdf="http://www.w3.org/1999/02/22-rdf-syntax-ns#"
   xmlns:svg="http://www.w3.org/2000/svg"
   xmlns="http://www.w3.org/2000/svg"
   xmlns:sodipodi="http://sodipodi.sourceforge.net/DTD/sodipodi-0.dtd"
   xmlns:inkscape="http://www.inkscape.org/namespaces/inkscape"
   width="744.09448819"
   height="1052.3622047"
   id="svg2"
   sodipodi:version="0.32"
   inkscape:version="0.44.1"
   sodipodi:docbase="C:\Documents and Settings\pc\Desktop\meteo\meteo svg\fumetto"
   sodipodi:docname="haily.svg">
  <defs
     id="defs4" />
  <sodipodi:namedview
     id="base"
     pagecolor="#ffffff"
     bordercolor="#666666"
     borderopacity="1.0"
     inkscape:pageopacity="0.0"
     inkscape:pageshadow="2"
     inkscape:zoom="1.4"
     inkscape:cx="375"
     inkscape:cy="527.1175"
     inkscape:document-units="px"
     inkscape:current-layer="layer1"
     inkscape:window-width="1280"
     inkscape:window-height="744"
     inkscape:window-x="-4"
     inkscape:window-y="-4"
     showgrid="true" />
  <metadata
     id="metadata7">
    <rdf:RDF>
      <cc:Work
         rdf:about="">
        <dc:format>image/svg+xml</dc:format>
        <dc:type
           rdf:resource="http://purl.org/dc/dcmitype/StillImage" />
      </cc:Work>
    </rdf:RDF>
  </metadata>
  <g
     inkscape:label="Livello 1"
     inkscape:groupmode="layer"
     id="layer1">
    <g
       id="g8291">
      <path
         d="M 142.75595,539.65684 C 142.76553,538.29179 142.76379,536.92663 142.76621,535.56158 C 142.66074,533.40085 142.84018,531.28026 142.97537,529.14321 C 143.00034,526.93956 143.70277,525.0786 144.2166,523.08773 C 144.95798,520.71575 145.91837,518.51277 146.83029,516.27671 C 148.01671,514.80142 148.86564,512.94562 149.82391,511.24105 C 150.14634,509.15056 150.7895,507.22131 151.31919,505.24306 C 151.84539,503.20412 152.73057,501.52182 153.57811,499.76679 C 154.75181,497.68116 155.83279,495.48644 156.96308,493.34921 C 160.45691,487.40574 164.24198,481.83641 168.42993,476.89721 C 172.01296,473.04113 176.01155,470.1362 180.01603,467.31153 C 184.04875,464.9682 180.81206,466.93898 183.37519,464.66145 C 185.07026,462.70895 186.90476,461.03582 188.71072,459.31473 C 190.93234,456.82789 193.38775,455.68909 196.05914,454.88862 C 199.09718,454.43435 202.06672,455.52604 204.99352,456.52739 C 207.31111,458.02059 209.54328,457.89826 211.97262,457.78662 C 214.59929,457.00005 217.10426,457.23341 219.70528,457.88048 C 222.66536,459.99051 224.57362,458.53052 227.29567,456.5796 C 230.55279,453.03051 234.41373,450.89164 238.34255,449.27315 C 240.19201,449.7157 242.20163,449.79559 243.94121,449.94753 C 241.10339,453.77629 243.16633,446.92532 243.47927,445.48785 C 244.94937,440.38256 247.91661,437.13616 250.80115,433.75517 C 253.60604,430.5846 256.78854,428.44609 260.09772,426.65962 C 262.11747,425.52532 263.94289,423.76617 267.42727,421.13235 C 270.36205,419.11884 273.51565,418.45914 276.70422,417.9395 C 279.31317,417.33656 281.51596,415.16636 283.79447,413.37971 C 286.50597,411.51754 289.50344,410.90519 292.42753,410.12062 C 294.9678,409.00496 296.77453,410.50568 298.9438,412.21451 C 300.8134,413.97688 302.59334,415.91257 304.42737,417.73152 C 306.68328,418.80657 309.10121,417.84273 311.42093,417.44814 C 315.49574,416.36022 318.41499,418.0841 321.72921,421.14097 C 323.60271,423.89341 325.36561,426.77059 327.28841,429.45382 C 329.00336,431.52901 330.75804,433.53451 332.49665,435.56842 C 334.35582,437.57871 335.91468,440.00806 337.49581,442.42983 C 338.43868,444.35829 339.7669,444.71876 341.10329,445.62262 C 342.66839,446.01976 344.261,445.9641 345.84314,445.997 C 347.8021,445.61127 349.43367,446.71874 351.21984,447.61125 C 353.20602,448.78895 354.93691,450.55715 356.68849,452.30167 C 358.40115,454.20658 359.6537,456.75844 361.01121,459.14997 C 362.83316,462.38678 364.79008,465.43157 366.5239,468.75993 C 367.66809,471.46094 368.68604,474.26631 369.76737,477.0225 C 371.05056,480.14998 372.40709,483.20855 373.65506,486.3628 C 374.58407,489.06819 375.89135,491.36787 377.22957,493.66567 C 378.64299,496.04773 380.28244,498.11212 381.86628,500.25032 C 383.73499,503.35704 384.8821,507.19362 386.1912,510.80979 C 387.49152,513.80826 388.50638,517.02401 389.6189,520.16636 C 390.8274,524.0401 392.32802,527.70179 393.7623,531.4075 C 394.80467,534.01994 395.82203,536.65223 396.82247,539.29272 C 397.38187,541.61141 397.59781,544.08204 397.89036,546.49227 C 398.89228,548.67023 398.78139,551.10608 398.98542,553.3711 C 397.27682,556.06428 395.74992,555.96818 393.5974,556.30055 C 392.07728,556.32447 390.55694,556.2926 389.03682,556.27457 C 387.517,556.258 385.99713,556.25739 384.47731,556.25393 C 382.96303,556.25241 381.44876,556.25302 379.93453,556.25302 C 378.4206,556.2532 376.90667,556.2532 375.39278,556.25326 C 373.8788,556.25332 372.36483,556.25332 370.85086,556.25332 C 369.33684,556.25332 367.82286,556.25332 366.30889,556.25332 C 364.79487,556.25332 363.2809,556.25332 361.76692,556.25332 C 360.25295,556.25332 358.73893,556.25332 357.22496,556.25332 C 355.69386,556.11558 354.19586,556.57622 352.69299,556.92528 C 351.15804,557.05878 349.6617,557.42884 348.15366,557.83758 C 346.28796,558.32785 344.38699,558.30022 342.49904,558.38837 C 340.62037,558.43311 338.74136,558.42607 336.86252,558.42771 C 335.08805,558.22707 333.54804,559.2093 331.93034,560.05282 C 330.14247,561.21286 328.2465,561.75594 326.35262,562.36877 C 324.56992,562.7338 322.76849,562.72354 320.97291,562.77502 C 319.42799,562.78182 317.88306,562.77107 316.33819,562.76464 C 314.82659,562.75881 313.31503,562.75924 311.80347,562.75772 C 309.95638,562.75414 308.10925,562.75389 306.26216,562.75402 C 304.58116,562.75572 302.90021,562.75638 301.21925,562.75717 C 299.6692,562.75851 298.11915,562.75705 296.5691,562.75608 C 294.56741,562.75274 292.56572,562.75341 290.56403,562.75304 C 288.89452,563.04352 287.29564,562.52206 285.66119,562.24323 C 284.03559,561.78939 282.37571,561.79734 280.7282,561.70288 C 278.81155,561.65195 276.89447,561.66433 274.97761,561.66433 C 273.37321,561.66871 271.76886,561.67047 270.1645,561.67247 C 268.55044,561.43377 266.99992,561.84214 265.42711,562.14021 C 263.42461,563.04777 261.42627,563.98053 259.42848,564.90879 C 257.12145,566.21835 254.66544,566.57901 252.22063,566.91678 C 250.17325,567.11432 248.12102,567.09896 246.07046,567.11535 C 244.15126,567.10455 242.23206,567.09969 240.31287,567.09477 C 238.26862,567.09016 236.22436,567.08998 234.18011,567.08797 C 232.29089,567.09016 230.4017,567.09064 228.51252,567.09113 C 226.48366,567.09131 224.45484,567.08907 222.42602,567.08737 C 220.27685,567.16865 218.12763,567.04687 215.98571,566.94847 C 214.40955,566.47514 212.93512,565.36955 211.42666,564.52136 C 209.13679,563.82318 206.78249,563.88898 204.45404,563.82549 C 201.77633,563.79331 199.0985,563.81274 196.4207,563.82379 C 194.35653,563.83684 192.29231,563.83453 190.22809,563.83429 C 187.64805,563.83392 185.06801,563.8321 182.48801,563.8321 C 181.04208,564.11299 179.57787,564.18912 178.1366,564.51535 C 176.72106,566.96079 174.5214,567.65546 172.6674,568.78721 C 170.93841,568.81793 169.25644,568.27169 167.56921,567.80971 C 165.73929,567.3294 163.88161,567.25522 162.02977,567.12403 C 160.2642,567.06648 158.49804,567.08184 156.73213,567.08148 C 154.92769,567.08633 153.12325,567.08822 151.31876,567.09016 C 149.57973,567.0907 147.8407,567.09192 146.10162,567.09295 C 144.6311,567.36686 143.23739,566.84958 141.80303,566.57865 C 140.50088,566.35579 140.00041,564.80511 139.11947,563.76539 C 138.3039,562.65925 137.88274,561.14566 137.30939,559.80684 C 136.76262,558.23187 136.52866,556.52596 136.18088,554.86442 C 135.79694,552.67419 136.26121,550.71179 136.60497,548.61202 C 137.09357,546.58703 137.84708,544.737 138.54447,542.85334 C 141.79663,539.54593 140.3367,540.68539 141.58937,539.3995 C 142.09019,538.46681 142.60338,537.56787 143.10555,536.66073 L 145.15566,535.32124 C 144.65607,536.26401 144.22168,537.24825 143.65571,538.15162 C 140.59783,541.20844 140.99407,540.73359 140.59677,541.54833 C 139.8904,543.40795 139.14058,545.24396 138.63031,547.24199 C 138.27431,549.29393 137.79253,551.20012 138.16244,553.35228 C 138.50114,554.99014 138.72535,556.67092 139.2664,558.22131 C 139.83199,559.53918 140.24857,561.02734 141.05236,562.11696 C 141.89909,563.08778 142.38663,564.59749 143.64562,564.7407 C 145.06773,564.9871 146.45856,565.46729 147.91302,565.20832 C 149.65099,565.20905 151.38901,565.21044 153.12698,565.20862 C 154.93104,565.2065 156.7351,565.20474 158.5392,565.20097 C 160.3077,565.20152 162.07666,565.18282 163.84477,565.24899 C 165.70127,565.3942 167.56349,565.48399 169.39701,565.97717 C 171.075,566.41905 172.74845,566.97488 174.46769,566.87447 C 177.07329,564.87807 173.25995,569.3774 176.04622,565.66501 C 178.74984,563.45354 181.09278,561.73591 184.28254,561.96501 C 186.8644,561.96501 189.4463,561.96368 192.02817,561.96125 C 194.09234,561.95688 196.15647,561.95263 198.22065,561.9502 C 200.89628,561.94492 203.572,561.93533 206.24759,561.96471 C 208.5952,562.0307 210.97176,561.95779 213.27455,562.71322 C 214.76322,563.57428 216.22933,564.68503 217.80529,565.09328 C 219.94238,565.17875 222.08459,565.28293 224.22686,565.21372 C 226.25813,565.21196 228.28941,565.20977 230.32065,565.20984 C 232.20784,565.2102 234.09508,565.2105 235.98227,565.21293 C 238.02826,565.21208 240.07429,565.21117 242.12028,565.21487 C 244.04024,565.22125 245.9602,565.22817 247.88016,565.23248 C 249.92322,565.2167 251.96823,565.23551 254.00765,565.02608 C 256.44394,564.6639 258.88612,564.27374 261.18244,562.9518 C 263.18765,562.02766 265.18781,561.07275 267.20336,560.19718 C 268.7886,559.93705 270.3598,559.57379 271.97721,559.7862 C 273.58021,559.78498 275.18321,559.78353 276.7862,559.78237 C 278.70362,559.78577 280.62129,559.77551 282.53845,559.82942 C 284.19656,559.93129 285.86717,559.92843 287.50149,560.4037 C 289.12238,560.66073 290.71588,561.14675 292.36843,560.8757 C 294.37207,560.87533 296.37571,560.876 298.37935,560.87266 C 299.93008,560.87169 301.48081,560.87023 303.03158,560.87157 C 304.71059,560.8723 306.38963,560.87296 308.06864,560.87448 C 309.91797,560.8746 311.76727,560.87394 313.6166,560.87139 C 315.12824,560.87303 316.63993,560.87266 318.15157,560.87897 C 319.69531,560.88571 321.23908,560.89743 322.78282,560.88826 C 324.57017,560.83083 326.36423,560.83958 328.13658,560.44723 C 330.01945,559.80581 331.9066,559.23079 333.68683,558.07579 C 335.32629,557.26955 336.88592,556.31257 338.67349,556.54386 C 340.54847,556.54447 342.42354,556.55503 344.29835,556.50805 C 346.18329,556.40618 348.08151,556.42427 349.94152,555.90378 C 351.45206,555.51695 352.95298,555.15842 354.48608,555.00089 C 355.9959,554.65577 357.49987,554.22032 359.03805,554.36693 C 360.55202,554.36693 362.066,554.36693 363.57997,554.36693 C 365.09399,554.36693 366.60796,554.36693 368.12194,554.36693 C 369.63595,554.36693 371.14993,554.36693 372.6639,554.36693 C 374.17788,554.36693 375.69185,554.36693 377.20583,554.36687 C 378.71976,554.36681 380.23365,554.36681 381.74758,554.36663 C 383.26185,554.36669 384.77617,554.36602 386.29048,554.36784 C 387.81056,554.37179 389.33064,554.37282 390.85068,554.39042 C 392.36927,554.40809 393.88821,554.44403 395.40672,554.40378 C 397.88752,553.90362 398.05488,554.41853 396.94358,554.7268 C 396.78911,552.55077 396.95312,550.1559 395.92767,548.01485 C 395.63003,545.6252 395.40023,543.18146 394.87411,540.86927 C 393.88316,538.2337 392.8778,535.60347 391.84501,532.99534 C 390.41247,529.28143 388.9149,525.61227 387.68758,521.74545 C 386.5737,518.60541 385.56287,515.38845 384.27264,512.383 C 382.97452,508.79512 381.84055,504.98251 379.96298,501.92533 C 378.37889,499.77632 376.74316,497.69616 375.3269,495.30833 C 373.97355,492.99571 372.64695,490.68486 371.72281,487.94572 C 370.48391,484.78984 369.13111,481.7349 367.84126,478.61872 C 366.76036,475.86957 365.73872,473.07531 364.6078,470.37047 C 362.88339,467.04545 360.93698,464.00121 359.11007,460.78388 C 357.75867,458.41882 356.50625,455.89944 354.80295,454.01973 C 353.06426,452.28971 351.34778,450.53013 349.37,449.38041 C 347.5929,448.53726 345.96646,447.49572 344.03039,447.88139 C 342.43714,447.83871 340.83177,447.89165 339.25993,447.44697 C 337.91124,446.48241 336.53517,446.05054 335.58572,444.08845 C 334.01668,441.67512 332.47091,439.25372 330.61755,437.26037 C 328.86864,435.22998 327.1035,433.22824 325.39808,431.12239 C 323.48843,428.44002 321.72481,425.58038 319.86576,422.82789 C 316.57257,419.83366 313.6726,418.2321 309.64964,419.33417 C 307.28062,419.7474 304.84056,420.7221 302.55226,419.47743 C 300.73001,417.63524 298.95775,415.67994 297.07785,413.94349 C 294.92643,412.28742 293.16035,410.91982 290.66518,412.04211 C 287.74393,412.81714 284.75786,413.44351 282.06858,415.36591 C 279.78109,417.16816 277.56354,419.31626 274.92347,419.82856 C 271.75215,420.36927 268.61848,421.05999 265.70902,423.09748 C 262.68751,425.3999 261.88431,426.21045 258.33745,428.62323 C 255.0195,430.46045 255.83609,429.46863 252.83862,432.59526 C 249.96112,435.92088 246.98501,439.10153 245.49266,444.14557 C 244.74746,447.85553 244.85471,450.04612 242.17305,451.94539 C 240.3904,451.68319 238.43335,451.41639 236.58711,451.18473 C 232.54303,452.90959 229.0581,454.85942 225.58669,458.55972 C 222.81521,460.44903 220.85714,461.78809 217.88053,459.69001 C 215.29252,459.09533 212.79184,458.92293 210.18581,459.68929 C 207.74953,459.74119 205.4934,459.80657 203.1742,458.3172 C 200.25545,457.34067 197.29838,456.27455 194.27399,456.79844 C 190.28468,458.11286 193.45918,456.04344 190.79046,458.1681 C 188.98262,459.87317 187.13859,461.52044 185.44784,463.47512 C 183.14962,465.63397 180.94966,468.08232 178.28107,469.2902 C 175.10543,471.5364 173.29204,472.63871 170.43497,475.74105 C 166.24469,480.62999 162.46916,486.16745 158.99818,492.10066 C 157.87408,494.23552 156.79216,496.42017 155.64089,498.52067 C 154.77317,500.24091 153.86934,501.87458 153.36357,503.92167 C 152.82273,505.88716 152.134,507.79668 151.86706,509.90994 C 150.92999,511.66836 150.15978,513.59379 148.87518,514.99422 C 147.95558,517.21335 146.99134,519.39988 146.2558,521.76536 C 145.72286,523.72631 145.0114,525.54586 144.98791,527.7333 C 144.8417,529.85456 144.65005,531.95385 144.76599,534.10238 C 144.76841,535.46251 144.76667,536.82264 144.77625,538.1827 L 142.75595,539.65684 z "
         id="path1872"
         style="opacity:0.97000002;fill:black;fill-opacity:1;stroke:black;stroke-width:2.02916598;stroke-linejoin:round;stroke-miterlimit:4;stroke-dasharray:none;stroke-opacity:1" />
      <g
         transform="matrix(0.330785,0,0,0.351771,105.2965,466.0167)"
         inkscape:label="Livello 1"
         id="g8276">
        <path
           style="fill:black;fill-opacity:1;fill-rule:evenodd;stroke:black;stroke-width:6.7067194px;stroke-linecap:butt;stroke-linejoin:miter;stroke-opacity:1"
           d="M 142.85336,410.22311 L 245.00378,410.22311 L 197.33359,324.3584 L 142.85336,410.22311 z "
           id="path8506" />
      </g>
      <g
         transform="matrix(0.330785,0,0,0.351771,163.8901,445.3028)"
         inkscape:label="Livello 1"
         id="g8279">
        <path
           style="fill:black;fill-opacity:1;fill-rule:evenodd;stroke:black;stroke-width:6.7067194px;stroke-linecap:butt;stroke-linejoin:miter;stroke-opacity:1"
           d="M 142.85336,410.22311 L 245.00378,410.22311 L 197.33359,324.3584 L 142.85336,410.22311 z "
           id="path8281" />
      </g>
      <g
         transform="matrix(0.330785,0,0,0.351771,217.28,460.3028)"
         inkscape:label="Livello 1"
         id="g8283">
        <path
           style="fill:black;fill-opacity:1;fill-rule:evenodd;stroke:black;stroke-width:6.7067194px;stroke-linecap:butt;stroke-linejoin:miter;stroke-opacity:1"
           d="M 142.85336,410.22311 L 245.00378,410.22311 L 197.33359,324.3584 L 142.85336,410.22311 z "
           id="path8285" />
      </g>
      <g
         transform="matrix(0.330785,0,0,0.351771,155.8514,490.3028)"
         inkscape:label="Livello 1"
         id="g8287">
        <path
           style="fill:black;fill-opacity:1;fill-rule:evenodd;stroke:black;stroke-width:6.7067194px;stroke-linecap:butt;stroke-linejoin:miter;stroke-opacity:1"
           d="M 142.85336,410.22311 L 245.00378,410.22311 L 197.33359,324.3584 L 142.85336,410.22311 z "
           id="path8289" />
      </g>
    </g>
  </g>
</svg>

<svg xmlns="http://www.w3.org/2000/svg" viewBox="0 0 744.09 1052.36" xmlns:xlink="http://www.w3.org/1999/xlink"><defs><path id="0" d="m142.85 410.22h102.15l-47.67-85.86-54.48 85.86z" stroke="#000" fill-rule="evenodd" stroke-width="6.707"/></defs><path d="m142.76 539.66c.001-1.365.008-2.73.001-4.095-.105-2.161.074-4.281.209-6.418.025-2.204.727-4.065 1.241-6.06.741-2.372 1.702-4.575 2.614-6.811 1.186-1.475 2.035-3.331 2.994-5.04.322-2.09.966-4.02 1.495-5.998.526-2.039 1.411-3.721 2.259-5.476 1.174-2.086 2.255-4.28 3.385-6.418 3.494-5.943 7.279-11.513 11.467-16.452 3.583-3.856 7.582-6.761 11.586-9.586 4.03-2.343.796-.373 3.359-2.65 1.695-1.952 3.53-3.626 5.336-5.347 2.222-2.487 4.677-3.626 7.348-4.426 3.038-.454 6.01.637 8.934 1.639 2.318 1.493 4.55 1.371 6.979 1.259 2.627-.787 5.132-.553 7.733.094 2.96 2.11 4.868.65 7.59-1.301 3.257-3.549 7.118-5.688 11.05-7.306 1.849.443 3.859.522 5.599.674-2.838 3.829-.775-3.02-.462-4.46 1.47-5.105 4.437-8.352 7.322-11.733 2.805-3.171 5.987-5.309 9.297-7.096 2.02-1.134 3.845-2.893 7.33-5.527 2.935-2.01 6.088-2.673 9.277-3.193 2.609-.603 4.812-2.773 7.09-4.56 2.712-1.862 5.709-2.475 8.633-3.259 2.54-1.116 4.347.385 6.516 2.094 1.87 1.762 3.65 3.698 5.484 5.517 2.256 1.075 4.674.111 6.994-.283 4.075-1.088 6.994.636 10.308 3.693 1.873 2.752 3.636 5.63 5.559 8.313 1.715 2.075 3.47 4.081 5.208 6.115 1.859 2.01 3.418 4.44 4.999 6.861.943 1.928 2.271 2.289 3.607 3.193 1.565.397 3.158.341 4.74.374 1.959-.386 3.591.722 5.377 1.614 1.986 1.178 3.717 2.946 5.469 4.69 1.713 1.905 2.965 4.457 4.323 6.848 1.822 3.237 3.779 6.282 5.513 9.61 1.144 2.701 2.162 5.506 3.243 8.263 1.283 3.127 2.64 6.186 3.888 9.34.929 2.705 2.236 5.01 3.575 7.303 1.413 2.382 3.053 4.446 4.637 6.585 1.869 3.107 3.02 6.943 4.325 10.559 1.3 2.998 2.315 6.214 3.428 9.357 1.209 3.874 2.709 7.535 4.143 11.241 1.042 2.612 2.06 5.245 3.06 7.885.559 2.319.775 4.789 1.068 7.2 1 2.178.891 4.614 1.095 6.879-1.709 2.693-3.236 2.597-5.388 2.929-1.52.024-3.04-.008-4.561-.026-1.52-.017-3.04-.017-4.56-.021-1.514-.002-3.03-.0001-4.543-.0001-1.514 0-3.03 0-4.542 0-1.514 0-3.03 0-4.542 0-1.514 0-3.03 0-4.542 0-1.514 0-3.03 0-4.542 0-1.514 0-3.03 0-4.542 0-1.531-.138-3.03.323-4.532.672-1.535.133-3.03.504-4.539.912-1.866.49-3.767.463-5.655.551-1.879.045-3.758.038-5.637.039-1.774-.201-3.314.782-4.932 1.625-1.788 1.16-3.684 1.703-5.578 2.316-1.783.365-3.584.355-5.38.406-1.545.007-3.09-.004-4.635-.001-1.512-.006-3.02-.005-4.535-.007-1.847-.004-3.694-.004-5.541-.004-1.681.002-3.362.002-5.04.003-1.55.0001-3.1 0-4.65-.0001-2-.003-4-.003-6.01-.003-1.67.29-3.268-.231-4.903-.51-1.626-.454-3.285-.446-4.933-.54-1.917-.051-3.834-.039-5.751-.039-1.604.004-3.209.006-4.813.008-1.614-.239-3.165.17-4.737.468-2 .908-4 1.84-5.999 2.769-2.307 1.31-4.763 1.67-7.208 2.01-2.047.198-4.1.182-6.15.199-1.919-.011-3.838-.016-5.758-.021-2.044-.005-4.089-.005-6.133-.007-1.889.002-3.778.003-5.668.003-2.029 0-4.058-.002-6.087-.004-2.149.081-4.298-.04-6.44-.139-1.576-.473-3.051-1.579-4.559-2.427-2.29-.698-4.644-.632-6.973-.696-2.678-.032-5.356-.013-8.03-.002-2.064.013-4.128.011-6.193.001-2.58 0-5.16-.002-7.74-.002-1.446.281-2.91.357-4.351.683-1.416 2.445-3.615 3.14-5.469 4.272-1.729.031-3.411-.516-5.098-.977-1.83-.48-3.688-.554-5.539-.686-1.766-.058-3.532-.042-5.298-.043-1.804.005-3.609.007-5.413.009-1.739.0001-3.478.002-5.217.003-1.471.274-2.864-.243-4.299-.514-1.302-.223-1.803-1.774-2.684-2.813-.816-1.106-1.237-2.62-1.81-3.959-.547-1.575-.781-3.281-1.129-4.942-.384-2.19.08-4.153.424-6.252.489-2.025 1.242-3.875 1.939-5.759 3.252-3.307 1.792-2.168 3.045-3.454.501-.933 1.014-1.832 1.516-2.739l2.05-1.339c-.5.943-.934 1.927-1.5 2.83-3.058 3.057-2.662 2.582-3.059 3.397-.706 1.86-1.456 3.696-1.966 5.694-.356 2.052-.838 3.958-.468 6.11.339 1.638.563 3.319 1.104 4.869.566 1.318.982 2.806 1.786 3.896.847.971 1.334 2.481 2.593 2.624 1.422.246 2.813.727 4.267.468 1.738.0001 3.476.002 5.214 0 1.804-.002 3.608-.004 5.412-.008 1.769.0001 3.537-.018 5.306.048 1.856.145 3.719.235 5.552.728 1.678.442 3.351.998 5.071.897 2.606-1.996-1.208 2.503 1.579-1.209 2.704-2.211 5.05-3.929 8.236-3.7 2.582 0 5.164-.0001 7.746-.004 2.064-.004 4.128-.009 6.192-.011 2.676-.005 5.351-.015 8.03.015 2.348.066 4.724-.007 7.03.749 1.489.861 2.955 1.972 4.531 2.38 2.137.085 4.279.19 6.422.12 2.031-.002 4.063-.004 6.094-.004 1.887 0 3.774.0001 5.662.003 2.046-.0001 4.092-.002 6.138.002 1.92.006 3.84.013 5.76.018 2.043-.016 4.088.003 6.127-.206 2.436-.362 4.878-.752 7.175-2.074 2.01-.924 4.01-1.879 6.02-2.755 1.585-.26 3.156-.623 4.774-.411 1.603-.0001 3.206-.003 4.809-.004 1.917.003 3.835-.007 5.752.047 1.658.102 3.329.099 4.963.574 1.621.257 3.214.743 4.867.472 2 0 4.01 0 6.01-.003 1.551-.0001 3.101-.002 4.652-.0001 1.679.0001 3.358.0001 5.04.003 1.849 0 3.699-.0001 5.548-.003 1.512.002 3.02.0001 4.535.008 1.544.007 3.088.018 4.631.009 1.787-.057 3.581-.049 5.354-.441 1.883-.641 3.77-1.216 5.55-2.371 1.639-.806 3.199-1.763 4.987-1.532 1.875.0001 3.75.011 5.625-.036 1.885-.102 3.783-.084 5.643-.604 1.511-.387 3.01-.745 4.545-.903 1.51-.345 3.01-.781 4.552-.634 1.514 0 3.03 0 4.542 0 1.514 0 3.03 0 4.542 0 1.514 0 3.03 0 4.542 0 1.514 0 3.03 0 4.542 0 1.514 0 3.03 0 4.542 0 1.514 0 3.03-.0001 4.543.0001 1.52.004 3.04.005 4.56.023 1.519.018 3.038.054 4.556.013 2.481-.5 2.648.015 1.537.323-.154-2.176.001-4.571-1.016-6.712-.298-2.39-.527-4.833-1.054-7.146-.991-2.636-1.996-5.266-3.03-7.874-1.433-3.714-2.93-7.383-4.157-11.25-1.114-3.14-2.125-6.357-3.415-9.362-1.298-3.588-2.432-7.4-4.31-10.458-1.584-2.149-3.22-4.229-4.636-6.617-1.353-2.313-2.68-4.623-3.604-7.363-1.239-3.156-2.592-6.211-3.882-9.327-1.081-2.749-2.103-5.543-3.233-8.248-1.724-3.325-3.671-6.369-5.498-9.587-1.351-2.365-2.604-4.884-4.307-6.764-1.739-1.73-3.455-3.49-5.433-4.639-1.777-.843-3.404-1.885-5.34-1.499-1.593-.043-3.199.001-4.77-.434-1.349-.965-2.725-1.396-3.674-3.359-1.569-2.413-3.115-4.835-4.968-6.828-1.749-2.03-3.514-4.03-5.219-6.138-1.91-2.682-3.673-5.542-5.532-8.294-3.293-2.994-6.193-4.596-10.216-3.494-2.369.413-4.809 1.388-7.097.143-1.822-1.842-3.595-3.797-5.474-5.534-2.151-1.656-3.918-3.02-6.413-1.901-2.921.775-5.907 1.401-8.597 3.324-2.287 1.802-4.505 3.95-7.145 4.463-3.171.541-6.305 1.231-9.214 3.269-3.02 2.302-3.825 3.113-7.372 5.526-3.318 1.837-2.501.845-5.499 3.972-2.877 3.326-5.854 6.506-7.346 11.55-.745 3.71-.638 5.901-3.32 7.8-1.783-.262-3.74-.529-5.586-.761-4.044 1.725-7.529 3.675-11 7.375-2.771 1.889-4.73 3.228-7.706 1.13-2.588-.595-5.089-.767-7.695-.0001-2.436.052-4.692.117-7.01-1.372-2.919-.977-5.876-2.043-8.9-1.519-3.989 1.314-.815-.755-3.484 1.37-1.808 1.705-3.652 3.352-5.343 5.307-2.298 2.159-4.498 4.607-7.167 5.815-3.176 2.246-4.989 3.349-7.846 6.451-4.19 4.889-7.966 10.426-11.437 16.36-1.124 2.135-2.206 4.32-3.357 6.42-.868 1.72-1.772 3.354-2.277 5.401-.541 1.965-1.23 3.875-1.497 5.988-.937 1.758-1.707 3.684-2.992 5.084-.92 2.219-1.884 4.406-2.619 6.771-.533 1.961-1.244 3.78-1.268 5.968-.146 2.121-.338 4.221-.222 6.369.002 1.36.0001 2.72.001 4.08l-2.02 1.474z" opacity=".97" stroke="#000" stroke-linejoin="round" stroke-width="2.029"/><use transform="matrix(.33078 0 0 .35177 105.3 466.02)" xlink:href="#0"/><use transform="matrix(.33078 0 0 .35177 163.89 445.3)" xlink:href="#0"/><use transform="matrix(.33078 0 0 .35177 217.28 460.3)" xlink:href="#0"/><use transform="matrix(.33078 0 0 .35177 155.85 490.3)" xlink:href="#0"/></svg>
